; generated by Slic3r 1.1.7 on 2015-11-06 at 18:57:53

; perimeters extrusion width = 0.40mm
; infill extrusion width = 0.87mm
; solid infill extrusion width = 0.68mm
; top infill extrusion width = 0.68mm

G21 ; set units to millimeters
M190 S70 ; wait for bed temperature to be reached
M104 S205 ; set temperature
G28 ; home all axes
G1 Z5 F5000 ; lift nozzle

M109 S205 ; wait for temperature to be reached
G90 ; use absolute coordinates
G92 E0
M82 ; use absolute distances for extrusion
M106 S255
G1 F1800.000 E-1.00000
G92 E0
G1 Z0.150 F7800.000
G1 X86.084 Y86.697 F7800.000
G1 E1.00000 F1800.000
G1 X86.226 Y86.556 E1.00136 F1080.000
G1 X87.815 Y85.283 E1.01525
G1 X89.784 Y84.215 E1.03053
G1 X91.573 Y83.898 E1.04293
G1 X108.620 Y83.375 E1.15927
G1 X110.836 Y83.704 E1.17455
G1 X112.583 Y84.618 E1.18800 F1080.000
G1 X114.266 Y85.869 E1.20231
G1 X115.800 Y87.501 E1.21759
G1 X116.667 Y89.566 E1.23287
G1 X116.817 Y90.765 E1.24111
G1 X117.314 Y108.335 E1.36101
G1 X116.979 Y110.550 E1.37629
G1 X115.893 Y112.509 E1.39157
G1 X114.956 Y113.441 E1.40059
G1 X113.359 Y114.724 E1.41456
G1 X111.393 Y115.796 E1.42984
G1 X109.576 Y116.116 E1.44242
G1 X92.517 Y116.596 E1.55884
G1 X90.302 Y116.261 E1.57412
G1 X88.583 Y115.362 E1.58735
G1 X86.949 Y114.155 E1.60121
G1 X85.411 Y112.526 E1.61649
G1 X84.538 Y110.463 E1.63177
G1 X84.386 Y109.259 E1.64005
G1 X83.859 Y91.679 E1.76003
G1 X84.190 Y89.464 E1.77531
G1 X85.273 Y87.503 E1.79059
G1 X86.041 Y86.739 E1.79798
G1 F1800.000 E0.79798
G92 E0
G1 X110.191 Y108.143 F7800.000
G1 E1.00000 F1800.000
G1 X109.109 Y109.012 E1.00947 F540.000
G1 X92.590 Y109.477 E1.12220
G1 X91.485 Y108.661 E1.13157
G1 X90.982 Y91.862 E1.24622
G1 X92.056 Y91.001 E1.25560
G1 X108.563 Y90.495 E1.36826
G1 X109.716 Y91.351 E1.37806
G1 X110.189 Y108.083 E1.49224 F540.000
G1 X110.512 Y108.134 F7800.000
G1 X110.517 Y108.293 E1.49333 F540.000
G1 X109.227 Y109.330 E1.50462
G1 X92.488 Y109.801 E1.61885
G1 X91.169 Y108.827 E1.63004
G1 X90.656 Y91.711 E1.74685
G1 X91.939 Y90.683 E1.75806
G1 X92.270 Y90.673 E1.76032
G1 X108.665 Y90.170 E1.87221 F540.000
G1 X110.033 Y91.186 E1.88383
G1 X110.511 Y108.074 E1.99908
G1 X110.834 Y108.124 F7800.000
G1 X110.843 Y108.444 E2.00126 F378.000
G1 X109.344 Y109.649 E2.01438
G1 X92.386 Y110.126 E2.13010
G1 X90.852 Y108.992 E2.14311
G1 X90.330 Y91.560 E2.26208
G1 X91.822 Y90.365 E2.27512
G1 X108.767 Y89.845 E2.39076
G1 X110.350 Y91.021 E2.40422
G1 X110.832 Y108.065 E2.52053 F378.000
G1 X110.357 Y91.421 F7800.000
G1 X92.168 Y91.303 F7800.000
G1 X108.466 Y90.803 E2.63176 F1080.000
G1 X109.415 Y91.508 E2.63982
G1 X109.881 Y108.000 E2.75237
G1 X108.998 Y108.710 E2.76010
G1 X92.687 Y109.169 E2.87141
G1 X91.786 Y108.503 E2.87905
G1 X91.292 Y92.005 E2.99165
G1 X92.121 Y91.341 E2.99889
G1 X92.285 Y91.623 F7800.000
G1 X108.364 Y91.129 E3.10862 F1080.000
G1 X109.097 Y91.674 E3.11485
G1 X109.554 Y107.848 E3.22523
G1 X108.881 Y108.390 E3.23113
G1 X92.789 Y108.842 E3.34094
G1 X92.104 Y108.337 E3.34675
G1 X91.620 Y92.156 E3.45717
G1 X92.239 Y91.661 E3.46258
G1 X92.403 Y91.943 F7800.000
G1 X108.261 Y91.456 E3.57081 F1080.000
G1 X108.778 Y91.840 E3.57520
G1 X109.226 Y107.697 E3.68342
G1 X108.763 Y108.070 E3.68748
G1 X92.891 Y108.516 E3.79579
G1 X92.422 Y108.170 E3.79977
G1 X91.948 Y92.307 E3.90802
G1 X92.356 Y91.980 E3.91160
G1 X92.521 Y92.262 F7800.000
G1 X108.159 Y91.782 E4.01832 F1080.000
G1 X108.460 Y92.005 E4.02088
G1 X108.899 Y107.546 E4.12693
G1 X108.645 Y107.750 E4.12915
G1 X92.994 Y108.190 E4.23596
G1 X92.741 Y108.004 E4.23811
G1 X92.275 Y92.459 E4.34420
G1 X92.474 Y92.300 E4.34593
G1 X92.602 Y92.583 F7800.000
G1 X108.139 Y92.106 E4.45197 F1080.000
G1 X108.573 Y107.429 E4.55654
G1 X93.060 Y107.865 E4.66241
G1 X92.604 Y92.643 E4.76630
G1 X92.935 Y92.896 F7800.000
G1 X107.826 Y92.439 E4.86792 F1080.000
G1 X108.241 Y107.115 E4.96808
G1 X93.373 Y107.533 E5.06954
G1 X92.937 Y92.956 E5.16903
G1 X93.267 Y93.209 F7800.000
G1 X107.512 Y92.772 E5.26624 F1080.000
G1 X107.909 Y106.801 E5.36199
G1 X93.686 Y107.201 E5.45905
G1 X93.269 Y93.269 E5.55413
G1 X93.600 Y93.522 F7800.000
G1 X107.198 Y93.104 E5.64694 F1080.000
G1 X107.576 Y106.488 E5.73827
G1 X93.999 Y106.869 E5.83092
G1 X93.602 Y93.582 E5.92161
G1 X93.932 Y93.835 F7800.000
G1 X106.884 Y93.437 E6.01000 F1080.000
G1 X107.244 Y106.174 E6.09692
G1 X94.313 Y106.538 E6.18517
G1 X93.934 Y93.895 E6.27145
G1 X94.265 Y94.148 F7800.000
G1 X106.571 Y93.770 E6.35544 F1080.000
G1 X106.912 Y105.860 E6.43794
G1 X94.626 Y106.206 E6.52179
G1 X94.267 Y94.208 E6.60367
G1 X94.597 Y94.461 F7800.000
G1 X106.257 Y94.103 E6.68324 F1080.000
G1 X106.580 Y105.546 E6.76134
G1 X94.939 Y105.874 E6.84078
G1 X94.599 Y94.521 E6.91826
G1 X94.930 Y94.774 F7800.000
G1 X105.943 Y94.436 E6.99342 F1080.000
G1 X106.248 Y105.232 E7.06710
G1 X95.252 Y105.542 E7.14214
G1 X95.609 Y94.280 F7800.000
G1 E1.00000 F1800.000
G1 X96.144 Y94.569 E1.00516 F1260.000
G1 X96.144 Y94.913 E1.00808
G1 X95.726 Y94.764 E1.01184
G1 X95.469 Y94.591 E1.01448
G1 X95.584 Y94.335 E1.01687
G1 X95.827 Y94.616 F7800.000
G1 F1800.000 E0.01687
G92 E0
G1 Z88.650 F7800.000
G1 Z88.800 F7800.000
G1 Z88.950 F7800.000
G1 Z89.100 F7800.000
G1 Z89.250 F7800.000
G1 Z89.400 F7800.000
G1 Z89.550 F7800.000
G1 Z89.700 F7800.000
M107
M104 S0 ; turn off temperature
G28 X0  ; home X axis
M84     ; disable motors

; filament used = 1143.6mm (8.1cm3)

; avoid_crossing_perimeters = 0
; bed_size = 200,200
; bed_temperature = 70
; bridge_acceleration = 0
; bridge_fan_speed = 100
; bridge_flow_ratio = 1
; brim_width = 0
; complete_objects = 0
; cooling = 0
; default_acceleration = 0
; disable_fan_first_layers = 0
; duplicate_distance = 6
; end_gcode = M104 S0 ; turn off temperature\nG28 X0  ; home X axis\nM84     ; disable motors\n
; external_perimeters_first = 0
; extruder_clearance_height = 20
; extruder_clearance_radius = 20
; extruder_offset = 0x0
; extrusion_axis = E
; extrusion_multiplier = 1
; fan_always_on = 1
; fan_below_layer_time = 60
; filament_diameter = 3
; first_layer_acceleration = 0
; first_layer_bed_temperature = 70
; first_layer_extrusion_width = 200%
; first_layer_speed = 30%
; first_layer_temperature = 205
; g0 = 0
; gcode_arcs = 0
; gcode_comments = 0
; gcode_flavor = reprap
; infill_acceleration = 0
; infill_first = 0
; layer_gcode = 
; max_fan_speed = 100
; min_fan_speed = 100
; min_print_speed = 10
; min_skirt_length = 0
; notes = 
; nozzle_diameter = 0.4
; only_retract_when_crossing_perimeters = 1
; ooze_prevention = 0
; output_filename_format = [input_filename_base].gcode
; perimeter_acceleration = 0
; post_process = 
; print_center = 105,100
; resolution = 0
; retract_before_travel = 2
; retract_layer_change = 1
; retract_length = 1
; retract_length_toolchange = 10
; retract_lift = 0
; retract_restart_extra = 0
; retract_restart_extra_toolchange = 0
; retract_speed = 30
; skirt_distance = 6
; skirt_height = 1